geofluxus/static/img/viz-lineplot.svg

<svg width="512.001" height="512.001" xmlns="http://www.w3.org/2000/svg">

 <g>
  <title>background</title>
  <rect fill="none" id="canvas_background" height="102" width="102" y="-1" x="-1"/>
 </g>
 <g>
  <title>Layer 1</title>
  <g id="svg_1">
   <g id="svg_2">
    <path id="svg_3" d="m506.35,80.699c-7.57,-7.589 -19.834,-7.609 -27.43,-0.052l-147.258,146.663l-42.557,-42.557c-7.577,-7.57 -19.846,-7.577 -27.423,0l-172.606,172.607c-7.577,7.57 -7.577,19.853 0,27.423c3.782,3.788 8.747,5.682 13.712,5.682c4.958,0 9.93,-1.894 13.711,-5.682l158.895,-158.888l42.531,42.524c7.57,7.57 19.808,7.577 27.397,0.032l160.97,-160.323c7.589,-7.557 7.615,-19.84 0.058,-27.429z"/>
   </g>
  </g>
  <g id="svg_4">
   <g id="svg_5">
    <path id="svg_6" d="m491.96,449.94l-453.172,0l0,-407.273c0,-10.712 -8.682,-19.394 -19.394,-19.394s-19.394,8.682 -19.394,19.394l0,426.667c0,10.712 8.682,19.394 19.394,19.394l472.566,0c10.712,0 19.394,-8.682 19.394,-19.394c0,-10.712 -8.682,-19.394 -19.394,-19.394z"/>
   </g>
  </g>
  <g id="svg_10"/>
  <g id="svg_11"/>
  <g id="svg_12"/>
  <g id="svg_13"/>
  <g id="svg_14"/>
  <g id="svg_15"/>
  <g id="svg_16"/>
  <g id="svg_17"/>
  <g id="svg_18"/>
  <g id="svg_19"/>
  <g id="svg_20"/>
  <g id="svg_21"/>
  <g id="svg_22"/>
  <g id="svg_23"/>
  <g id="svg_24"/>
 </g>
</svg>

<?xml version="1.0" encoding="iso-8859-1"?>
<!-- Generator: Adobe Illustrator 19.0.0, SVG Export Plug-In . SVG Version: 6.00 Build 0)  -->
<svg version="1.1" id="Capa_1" xmlns="http://www.w3.org/2000/svg" xmlns:xlink="http://www.w3.org/1999/xlink" x="0px" y="0px"
	 viewBox="0 0 512.001 512.001" style="enable-background:new 0 0 512.001 512.001;" xml:space="preserve">
<g>
	<g>
		<path d="M506.35,80.699c-7.57-7.589-19.834-7.609-27.43-0.052L331.662,227.31l-42.557-42.557c-7.577-7.57-19.846-7.577-27.423,0
			L89.076,357.36c-7.577,7.57-7.577,19.853,0,27.423c3.782,3.788,8.747,5.682,13.712,5.682c4.958,0,9.93-1.894,13.711-5.682
			l158.895-158.888l42.531,42.524c7.57,7.57,19.808,7.577,27.397,0.032l160.97-160.323
			C513.881,100.571,513.907,88.288,506.35,80.699z"/>
	</g>
</g>
<g>
	<g>
		<path d="M491.96,449.94H38.788V42.667c0-10.712-8.682-19.394-19.394-19.394S0,31.955,0,42.667v426.667
			c0,10.712,8.682,19.394,19.394,19.394H491.96c10.712,0,19.394-8.682,19.394-19.394C511.354,458.622,502.672,449.94,491.96,449.94z
			"/>
	</g>
</g>
<g>
	<g>
		<path d="M492.606,74.344H347.152c-10.712,0-19.394,8.682-19.394,19.394s8.682,19.394,19.394,19.394h126.061v126.067
			c0,10.705,8.682,19.394,19.394,19.394S512,249.904,512,239.192V93.738C512,83.026,503.318,74.344,492.606,74.344z"/>
	</g>
</g>
<g>
</g>
<g>
</g>
<g>
</g>
<g>
</g>
<g>
</g>
<g>
</g>
<g>
</g>
<g>
</g>
<g>
</g>
<g>
</g>
<g>
</g>
<g>
</g>
<g>
</g>
<g>
</g>
<g>
</g>
</svg>
